X: 3096
Q:"Reel."
M: C
L: 1/8
K: A
uc |\
(AF)EF A2AB | (A/B/c) (BA) BFFB |\
(ef/g/) ae (fe)ae |
[1 AFEF A2(Aa) | f2(ec) eAA :|\
[2 AFEF ABce | faef cAA |]


